svgs/sharp-thin/building-magnifying-glass.svg

<svg xmlns="http://www.w3.org/2000/svg" viewBox="0 0 640 512"><!--! Font Awesome Pro 6.6.0 by @fontawesome - https://fontawesome.com License - https://fontawesome.com/license (Commercial License) Copyright 2024 Fonticons, Inc. --><path d="M16 16l352 0 0 165.4c5.2-3 10.5-5.7 16-8.1L384 16l0-16L368 0 16 0 0 0 0 16 0 496l0 16 16 0 128 0 16 0 64 0 16 0 128 0 16 0 0-16 0-29.3c-5.5-2.4-10.8-5.1-16-8.1l0 37.4-128 0 0-112 0-16-16 0-64 0-16 0 0 16 0 112L16 496 16 16zM312 232l-8 0-64 0-8 0 0 8 0 64 0 8 8 0 48.2 0c.3-5.4 .8-10.7 1.6-16L248 296l0-48 48 0 0 21.9c4-12.1 9.4-23.6 16-34.2l0-3.7zM160 496l0-112 64 0 0 112-64 0zM80 232l-8 0 0 8 0 64 0 8 8 0 64 0 8 0 0-8 0-64 0-8-8 0-64 0zm8 64l0-48 48 0 0 48-48 0zM80 104l-8 0 0 8 0 64 0 8 8 0 64 0 8 0 0-8 0-64 0-8-8 0-64 0zm8 64l0-48 48 0 0 48-48 0zm144-64l0 8 0 64 0 8 8 0 64 0 8 0 0-8 0-64 0-8-8 0-64 0-8 0zm16 16l48 0 0 48-48 0 0-48zm200 88.1a112 112 0 1 1 0 224 112 112 0 1 1 0-224zm0 240c32.5 0 62.1-12.1 84.7-32l89.7 89.5 5.7 5.7L639.3 500l-5.7-5.7L544 404.8c19.9-22.6 32-52.2 32-84.7c0-70.7-57.3-128-128-128s-128 57.3-128 128s57.3 128 128 128z"/></svg>

<svg xmlns="http://www.w3.org/2000/svg" viewBox="0 0 640 512"><!--! Font Awesome Pro 6.5.2 by @fontawesome - https://fontawesome.com License - https://fontawesome.com/license (Commercial License) Copyright 2024 Fonticons, Inc. --><path d="M16 16H368V181.4c5.2-3 10.5-5.7 16-8.1V16 0H368 16 0V16 496v16H16 144h16 64 16H368h16V496 466.7c-5.5-2.4-10.8-5.1-16-8.1V496H240V384 368H224 160 144v16V496H16V16zM312 232h-8H240h-8v8 64 8h8 48.2c.3-5.4 .8-10.7 1.6-16H248V248h48v21.9c4-12.1 9.4-23.6 16-34.2V232zM160 496V384h64V496H160zM80 232H72v8 64 8h8 64 8v-8V240v-8h-8H80zm8 64V248h48v48H88zM80 104H72v8 64 8h8 64 8v-8V112v-8h-8H80zm8 64V120h48v48H88zm144-64v8 64 8h8 64 8v-8V112v-8h-8H240h-8zm16 16h48v48H248V120zm200 88.1a112 112 0 1 1 0 224 112 112 0 1 1 0-224zm0 240c32.5 0 62.1-12.1 84.7-32l89.7 89.5 5.7 5.7L639.3 500l-5.7-5.7L544 404.8c19.9-22.6 32-52.2 32-84.7c0-70.7-57.3-128-128-128s-128 57.3-128 128s57.3 128 128 128z"/></svg>
